X:1
T:Gaudeamus
T:Joachim Kelecom (°1977)
T:Gaudeamus
T:super themata gregoriana
T:©
T:©
T:©
T:©
T:©
T:©
C:Joachim Kelecom
C:(°1977)
Z:©
%%score [ 1 2 3 ]
L:1/8
Q:1/4=108
M:4/4
K:Dmin
V:1 treble nm="Soprano" snm="S"
V:2 treble nm="Alto" snm="A"
V:3 treble-8 nm="Baritone" snm="B"
V:1
"^Moderato  (c. 90)" z2 | z4 !>!C>!>!D!sfz! D2 |!f! d2 c2 ec d2 | z8 | C>D D2 A4 | c4 A4 | %6
w: |Gau- de- a-|mus in Do- mi- no||Gau- de- a- mus|om- nes|
 c4 dc d2 | d2 c2 e2 d2 | B2 d2 A2 A2 | G2 A2 B2 c2 | d2 e2 f2 d2 | B2 c2 d2 d2 |[M:1/4] z2 | %13
w: in Do- mi- no!|Di- em fes- tum|ce- le- bran- tes,|di- em fes- tum|ce- le- bran- tes,|ce- le- bran- tes||
[M:4/4] z6 Ac | (d2 ef) e4 | d2 d2 (cd e2) | (3(f2 e2) d2 e4 || z8 | z2 F2 c2 BA | BAGF Gccc | %20
w: sub ho-|no- * * re|sanc- to- rum _ _|om- * ni- um||de quo- rum sol-|lem- ni- ta, sol- lem- ni- ta- te|
 z2 F2 c2 BA | BA (GFGc) c2 | c2 c2 _e>e d2 | z4 c2 c2 | _e>e d2 z4 | z8 | dddd f/e/d cd | %27
w: de quo- rum sol-|lem- ni- ta- * * * te|gau- dent an- ge- li|gau- dent|an- ge- li||et col- lau- dant fi- li- um De- i,|
 dddd f/e/d cd | dddd f/e/d cd | dddd f/e/d cd | dddd f/e/d cd | dddd f/e/d cd | %32
w: et col- lau- dant fi- li- um De- i,|et col- lau- dant fi- li- um De- i,|et col- lau- dant fi- li- um De- i,|et col- lau- dant fi- li- um De- i,|et col- lau- dant fi- li- um De- i,|
 dddd f/e/d c!fermata!d!fine! || %33
w: et col- lau- dant fi- li- um De- i.|
 !stemless!A2 !stemless!A2 !stemless!A2 !stemless!A2 !stemless!A2 !stemless!A2 !stemless!A2 !stemless!B2 !stemless!c2 !stemless!d4 | %34
w: Ex- sul- ta- te iu- sti in Do- mi- no;|
 !stemless!d2 !stemless!d2 !stemless!d2 !stemless!d2 !stemless!c2 !stemless!B2 !stemless!A2 !stemless!A2 !stemless!A4!D.C.! |] %35
w: rec- tos de- cet col- lau- da- ti- o.|
V:2
 z2 | z2 !>!C>!>!D!sfz! D4 |!f! A2 A2 BB A2 | z4 C>D D2 | A4 B4 | A8 | A4 GG A2 | z4 A2 B2 | %8
w: |Gau- de- a-|mus in Do- mi- no|Gau- de- a-|mus om-|nes|in Do- mi- no!|Di- em|
 G2 A2 F2 E2 | D2 E2 F2 G2 | A2 B2 (c2 A2) | G2 G2 A2 A2 |[M:1/4] AG |[M:4/4] (A2 FD) (EG)AF | %14
w: fes- tum ce- le-|le- bran- tes, di-|em fes- um _|ce- le- bran- tes|sub ho-|no- * * re, _ sub ho-|
 (G2 AB) A4 | F2 A2 (Gc c2) | (3(c2 =B2) A2 c4 || z6 F2 | c2 BA BAGF | z2 F2 c2 BA | GF (Gc) c4 | %21
w: no- * * re|sanc- to- rum _ _|om- * ni- um|de|quo- rum sol- lem- nit- ta- te|de quo- rum sol-|lem- ni- ta- * te|
 F2 Fc B2 A2 | A2 A2 G>G =B2 | z4 A2 A2 | G>G =B2 z4 | GA!courtesy!_BG A/G/F GG | GABG A/G/F GG | %27
w: sol- lem- ni- ta- te|gau- dent an- ge- li|gau- dent|an- ge- li|et col- lau- dant fi- li- um De- i,|et col- lau- dant fi- li- um De- i,|
 GABG A/G/F GG | GABG A/G/F GG | GABG A/G/F GG | GABG A/G/F GG | GABG A/G/F GG | %32
w: et col- lau- dant fi- li- um De- i,|et col- lau- dant fi- li- um De- i,|et col- lau- dant fi- li- um De- i|et col- lau- dant fi- li- um De- i,|et col- lau- dant fi- li- um De- i|
 GABG A/G/F G!fermata!A || %33
w: et col- lau- dant fi- li- um De- i.|
 !stemless!A2 !stemless!G2 !stemless!F2 !stemless!F2 !stemless!F2 !stemless!F2 !stemless!F2 !stemless!G2 !stemless!A2 !stemless!B4 | %34
w: Ex- sul- ta- te iu- sti in Do- mi- no;|
 !stemless!B2 !stemless!B2 !stemless!B2 !stemless!B2 !stemless!A2 !stemless!G2 !stemless!F2 !stemless!G2 !stemless!F4 |] %35
w: rec- tos de- cet col- lau- da- ti- o.|
V:3
 !>!C>!>!D |!sfz! D8 |!f! D2 E2 FE D2 | C>D D2 A4 | D4 C4 | D8 | (D2 E2) FE D2 | z8 | D2 D2 C2 C2 | %9
w: Gau- de-|a-|mus in Do- mi- no|Gau- de- a- mus|om- *|nes|in _ Do- mi- no!||Di- em fes- tum|
 B,2 B,2 A,2 A,2 | D2 C2 D2 E2 | F2 E2 D2 D2 |[M:1/4] z2 |[M:4/4] z6 DD | E4 F4 | D2 E2 (FG A2) | %16
w: ce- le- bran- tes,|ce- le- bran- tes,|ce- le- bran- tes||sub ho-|no- re|sanc- to- rum _ _|
 (3(A2 G2) F2 C4 || (FG) (FG) (FG) (FG) | (FG) (FG) (FG) (FG) | (FG) (FG) (FG) (FG) | %20
w: om- * ni- um|de _ quo- * rum _ sol- *|lem- * ni- * ta- * te, _|de _ quo- * rum _ sol- *|
 (FG) (FG) (FG) (FG) | (FG)FG (FG) (FG) | F2 F2 C>C G2 | z4 F2 F2 | C>C G2 z4 | z8 | F2 G2 (G2 A2 | %27
w: lem- * ni- * ta- * te, _|sol- * lem- ni- ta- * te _|gau- dent an- ge- li|gau- dent|an- ge- li||et col- lau- *|
 c2 A2 G2) (A2 | G2) (F2 G2 E2) | F2 (F2 G2 A2 | F2 G2 F2 E2) | (D2 E2 F2 E2 | %32
w: * * * dant|_ fi- * *|li- um _ _|_ _ _ _|De- * * *|
 F2) (E2 !fermata!D4) || %33
w: * i. _|
 !stemless!D2 !stemless!D2 !stemless!C2 !stemless!B,2 !stemless!B,2 !stemless!B,2 !stemless!C2 !stemless!D2 !stemless!E2 !stemless!F4 | %34
w: Ex- sul- ta- te iu- sti in Do- mi- no;|
 !stemless!G2 !stemless!G2 !stemless!G2 !stemless!G2 !stemless!G2 !stemless!F2 !stemless!E2 !stemless!D2 !stemless!D4 |] %35
w: rec- tos de- cet col- lau- da- ti- o.|

